X:1
T:Return (Monk), 86.86.4
T:William Henry Monk, 1871
T:Return (Monk), 86.86.4
T:Public Domain
C:William Henry Monk, 1871
Z:Public Domain
%%score ( 1 2 ) ( 3 4 )
L:1/8
M:4/4
K:Eb
V:1 treble 
V:2 treble 
V:3 bass 
V:4 bass 
V:1
 [EG]2 | [EB]2 [Ee]2 [Ed]2 [Ec]2 | [EB]2 [DF]2 E2 [EB]2 | [Ec]2 [EF]2 [DF]2 [EF]2 | [DF]6 [EG]2 | %5
 [EB]2 [Ee]2 [Ed]2 [Ec]2 | [EB]2 [Ec]2 [FA]2 [FB]2 | [EG]2 [Gc]2 [GB]2 [^F=A]2 x | G6 [EG]2 | %9
 (E2 DC D2) [DF]2 | [EG]6 |] %11
V:2
 x2 | x8 | x4 E2 x2 | x8 | x8 | x8 | x8 | x9 | G6 x2 | B6 x2 | x6 |] %11
V:3
 [E,B,]2 | [E,G,]2 [G,,B,]2 [G,,B,]2 [A,,A,]2 | [B,,G,]2 [B,,A,]2 [E,G,]2 [E,G,]2 | %3
 [A,,A,]2 [=A,,C]2 [B,,B,]2 [C,=A,]2 | [B,,B,]6 [E,B,]2 | [E,G,]2 [G,,B,]2 [G,,B,]2 [A,,A,]2 | %6
 [E,G,]2 [C,C]2 [F,C]2 [D,B,]2 | [E,B,]2 [C,E]2 D,2 z C x | [G,B,]6 [C,G,]2 | %9
 (G,2 F,E, F,2) [B,,B,]2 | [E,B,]6 |] %11
V:4
 x2 | x8 | x8 | x8 | x8 | x8 | x8 | x4 D3 D,2 | x8 | B,,6 x2 | x6 |] %11

